COLOR/categories 16/16/applications-other.svg

<svg height="16" width="15.999999" xmlns="http://www.w3.org/2000/svg" xmlns:xlink="http://www.w3.org/1999/xlink"><linearGradient id="a" gradientTransform="matrix(0 -1 1 0 -235.999987 335.999733)" gradientUnits="userSpaceOnUse" x1="317.26004" x2="338.31595" y1="255.44786" y2="230.85617"><stop offset="0" stop-color="#f37e40"/><stop offset="1" stop-color="#f34f17"/></linearGradient><path d="m.50001444 11.14522c0 3.04166.30899 3.36894 3.32330996 3.35403h4.17669 4.1766906c3.01432.0149 3.32331-.31237 3.32331-3.35403v-6.2914597c0-3.04167-.30895-3.35404-3.32331-3.35404h-4.1766906-4.17669c-3.01434996 0-3.32330996.31238-3.32330996 3.35404z" fill="url(#a)"/><path d="m7.3229244 4.8927603c-.27272.56818-.53407 1.1439504-.78406 1.7272904-.25.57573-.50389 1.1818303-.76146 1.8181903-.24999.63635-.77266 2.022659-.77266 2.022659l-.58972 1.43177h1.49508l.54088-1.48616 3.0490399-.40669.6478607 1.89285h1.48895l-.64483-1.40903s-.5265-1.382579-.78407-2.011359c-.2500007-.63637-.5000407-1.2461903-.7500307-1.8295103s-.7953799-1.7500104-.7953799-1.7500104h-.67348zm1.20443 2.8749507c.27272.67422.5529699 1.4015.8408599 2.181779l-2.6865099-.102229c.23484-.65908.46972-1.29538.70456-1.90901.19355-.4960003.39473-.9743903.60278-1.4366203v-.009s.30492.6989.53831 1.2748903z" fill="#fff9f2"/><path d="m8.6625244 4.8927603-.65844 1.6187404s.29932.70255.52327 1.2562103c.27272.67422.5529699 1.4015.8408599 2.181779l1.4373107.0387c-.20139-.529539-.40063-1.035209-.59759-1.516019-.2500007-.63635-.5000407-1.2461703-.7500307-1.8294903-.24999-.58334-.7953799-1.7500204-.7953799-1.7500204zm-.31069 5.4368997 1.1545599.0786.6410607 1.48446h1.48784l-.65709-1.48075-.0121-.0321c-.8594-.0171 6.21743-.28454-2.6142806-.0502z" fill="#f34f17" opacity=".1"/><rect fill="#f8f8f8" height="1.555551" rx=".771421" ry=".777776" width="8" x="4.000065" y="8.888709"/><path d="m3.8242188 1.5c-3.01435001 0-3.3242188.3118556-3.3242188 3.3535156v.5c0-3.04166.30986879-3.3535156 3.3242188-3.3535156h4.1757812 4.175781c3.01436 0 3.324219.3118456 3.324219 3.3535156v-.5c0-3.04167-.309859-3.3535156-3.324219-3.3535156h-4.175781z" fill="#fff" opacity=".3"/><path d="m5.0000044 2.9997203s0-2.5 3-2.5c3.0000006 0 3.0000006 2.5 3.0000006 2.5" fill="none" stroke="#fee8bc" stroke-linecap="round"/><path d="m12.175781 14.5c3.01435 0 3.324219-.311856 3.324219-3.353516v-.5c0 3.04166-.309869 3.353516-3.324219 3.353516h-4.1757811-4.175781c-3.01436 0-3.324219-.311846-3.324219-3.353516v.5c0 3.04167.309859 3.353516 3.324219 3.353516h4.175781z" opacity=".2"/></svg>

<?xml version="1.0" encoding="UTF-8" standalone="no"?>
<svg
   xmlns:osb="http://www.openswatchbook.org/uri/2009/osb"
   xmlns:dc="http://purl.org/dc/elements/1.1/"
   xmlns:cc="http://creativecommons.org/ns#"
   xmlns:rdf="http://www.w3.org/1999/02/22-rdf-syntax-ns#"
   xmlns:svg="http://www.w3.org/2000/svg"
   xmlns="http://www.w3.org/2000/svg"
   xmlns:xlink="http://www.w3.org/1999/xlink"
   xmlns:sodipodi="http://sodipodi.sourceforge.net/DTD/sodipodi-0.dtd"
   xmlns:inkscape="http://www.inkscape.org/namespaces/inkscape"
   height="16"
   id="svg7384"
   version="1.1"
   width="15.999999"
   sodipodi:docname="software-store.svg"
   inkscape:version="0.92.4 (5da689c313, 2019-01-14)">
  <sodipodi:namedview
     pagecolor="#ffffff"
     bordercolor="#666666"
     borderopacity="1"
     objecttolerance="10"
     gridtolerance="10"
     guidetolerance="10"
     inkscape:pageopacity="0"
     inkscape:pageshadow="2"
     inkscape:window-width="1920"
     inkscape:window-height="1016"
     id="namedview21"
     showgrid="false"
     inkscape:zoom="57.86209"
     inkscape:cx="8.0000147"
     inkscape:cy="8.0589834"
     inkscape:window-x="0"
     inkscape:window-y="27"
     inkscape:window-maximized="1"
     inkscape:current-layer="svg7384" />
  <metadata
     id="metadata20854">
    <rdf:RDF>
      <cc:Work
         rdf:about="">
        <dc:title />
        <dc:format>image/svg+xml</dc:format>
        <dc:type
           rdf:resource="http://purl.org/dc/dcmitype/StillImage" />
      </cc:Work>
    </rdf:RDF>
  </metadata>
  <defs
     id="defs7386">
    <linearGradient
       id="linearGradient5606"
       osb:paint="solid">
      <stop
         id="stop5608"
         offset="0"
         style="stop-color:#000000;stop-opacity:1;" />
    </linearGradient>
    <linearGradient
       id="linearGradient4526"
       osb:paint="solid">
      <stop
         id="stop4528"
         offset="0"
         style="stop-color:#ffffff;stop-opacity:1;" />
    </linearGradient>
    <linearGradient
       id="linearGradient3600-4"
       osb:paint="gradient">
      <stop
         id="stop3602-7"
         offset="0"
         style="stop-color:#f4f4f4;stop-opacity:1" />
      <stop
         id="stop3604-6"
         offset="1"
         style="stop-color:#dbdbdb;stop-opacity:1" />
    </linearGradient>
    <linearGradient
       inkscape:collect="always"
       xlink:href="#linearGradient7537"
       id="linearGradient4878"
       x1="317.26004"
       y1="255.44786"
       x2="338.31595"
       y2="230.85617"
       gradientUnits="userSpaceOnUse"
       gradientTransform="rotate(-90,49.999873,285.99986)" />
    <linearGradient
       id="linearGradient7537">
      <stop
         style="stop-color:#f37e40;stop-opacity:1"
         offset="0"
         id="stop7539" />
      <stop
         style="stop-color:#f34f17;stop-opacity:1"
         offset="1"
         id="stop7541" />
    </linearGradient>
    <clipPath
       clipPathUnits="userSpaceOnUse"
       id="clipPath983">
      <path
         sodipodi:nodetypes="scccssscsss"
         inkscape:connector-curvature="0"
         id="path985"
         d="m 325.09646,237 c -2.80769,0 -3.10979,0.28839 -3.09603,3.10176 V 244 v 3.89824 c -0.0138,2.81337 0.28834,3.10176 3.09603,3.10176 h 5.8075 C 333.71166,251 334,250.71165 334,247.89824 V 244 240.10176 C 334,237.28836 333.71165,237 330.90396,237 Z"
         style="color:#000000;display:inline;overflow:visible;visibility:visible;opacity:1;fill:#46a926;fill-opacity:1;fill-rule:nonzero;stroke:none;stroke-width:2;stroke-miterlimit:4;stroke-dasharray:none;stroke-opacity:1;marker:none;enable-background:accumulate" />
    </clipPath>
  </defs>
  <g
     id="layer9"
     label="status"
     style="display:inline"
     transform="translate(-753.00024,167.00006)" />
  <g
     id="layer2"
     style="display:inline"
     transform="translate(-512.00004,-199.99994)" />
  <g
     id="layer4"
     style="display:inline"
     transform="translate(-512.00004,-199.99994)" />
  <g
     id="g1812"
     style="display:inline"
     transform="translate(-512.00004,-199.99994)" />
  <g
     id="g6217"
     style="display:inline"
     transform="translate(-512.00004,-199.99994)" />
  <g
     id="layer3"
     style="display:inline"
     transform="translate(-512.00004,-199.99994)" />
  <g
     id="layer1"
     style="display:inline"
     transform="translate(-512.00004,-199.99994)" />
  <g
     id="layer9-3"
     label="status"
     style="display:inline"
     transform="translate(-813.00026,47.000001)" />
  <g
     id="layer2-6"
     style="display:inline"
     transform="translate(-572.00006,-320)" />
  <g
     id="layer4-7"
     style="display:inline"
     transform="translate(-572.00006,-320)" />
  <g
     id="g1812-5"
     style="display:inline"
     transform="translate(-572.00006,-320)" />
  <g
     id="g6217-3"
     style="display:inline"
     transform="translate(-572.00006,-320)" />
  <g
     id="layer3-5"
     style="display:inline"
     transform="translate(-572.00006,-320)" />
  <g
     id="layer1-6"
     style="display:inline"
     transform="translate(-572.00006,-320)" />
  <path
     style="color:#000000;display:inline;overflow:visible;visibility:visible;fill:url(#linearGradient4878);fill-opacity:1;fill-rule:nonzero;stroke:none;stroke-width:1;marker:none;enable-background:accumulate"
     d="m 0.50001444,11.14522 c 0,3.04166 0.30899,3.36894 3.32330996,3.35403 h 4.17669 4.1766906 c 3.01432,0.0149 3.32331,-0.31237 3.32331,-3.35403 V 4.8537603 c 0,-3.04167 -0.30895,-3.35404 -3.32331,-3.35404 h -4.1766906 -4.17669 c -3.01434996,0 -3.32330996,0.31238 -3.32330996,3.35404 z"
     id="path918"
     inkscape:connector-curvature="0"
     sodipodi:nodetypes="scccssscsss" />
  <path
     sodipodi:nodetypes="ccccccccccccsccccccccccc"
     inkscape:connector-curvature="0"
     id="path967-7-1-7"
     d="m 7.3229244,4.8927603 c -0.27272,0.56818 -0.53407,1.1439504 -0.78406,1.7272904 -0.25,0.57573 -0.50389,1.1818303 -0.76146,1.8181903 -0.24999,0.63635 -0.77266,2.022659 -0.77266,2.022659 l -0.58972,1.43177 h 1.49508 l 0.54088,-1.48616 3.0490399,-0.40669 0.6478607,1.89285 h 1.48895 l -0.64483,-1.40903 c 0,0 -0.5265,-1.382579 -0.78407,-2.011359 C 9.9579343,7.835911 9.7078943,7.2260907 9.4579043,6.6427707 9.2079143,6.0594507 8.6625244,4.8927603 8.6625244,4.8927603 h -0.67348 z m 1.20443,2.8749507 c 0.27272,0.67422 0.5529699,1.4015 0.8408599,2.181779 L 6.6817044,9.847261 c 0.23484,-0.65908 0.46972,-1.29538 0.70456,-1.90901 0.19355,-0.4960003 0.39473,-0.9743903 0.60278,-1.4366203 v -0.009 c 0,0 0.30492,0.6989 0.53831,1.2748903 z"
     style="font-style:normal;font-variant:normal;font-weight:300;font-stretch:normal;font-size:196.24819946px;line-height:1000%;font-family:Ubuntu;-inkscape-font-specification:'Ubuntu Light';letter-spacing:0px;word-spacing:0px;display:inline;fill:#fff9f2;fill-opacity:1;stroke:none;stroke-width:0.64935064px;stroke-linecap:butt;stroke-linejoin:miter;stroke-opacity:1;enable-background:new" />
  <path
     sodipodi:nodetypes="cccccccsccccccccc"
     inkscape:connector-curvature="0"
     id="path969-5-8-9"
     d="m 8.6625244,4.8927603 -0.65844,1.6187404 c 0,0 0.29932,0.70255 0.52327,1.2562103 0.27272,0.67422 0.5529699,1.4015 0.8408599,2.181779 v 0 l 1.4373107,0.0387 C 10.604135,9.458651 10.404895,8.952981 10.207935,8.472171 9.9579343,7.835821 9.7078943,7.2260007 9.4579043,6.6426807 9.2079143,6.0593407 8.6625244,4.8926603 8.6625244,4.8926603 Z m -0.31069,5.4368997 1.1545599,0.0786 0.6410607,1.48446 h 1.48784 l -0.65709,-1.48075 -0.0121,-0.0321 c -0.8594,-0.0171 6.21743,-0.28454 -2.6142806,-0.0502 z"
     style="font-style:normal;font-variant:normal;font-weight:300;font-stretch:normal;font-size:196.24819946px;line-height:1000%;font-family:Ubuntu;-inkscape-font-specification:'Ubuntu Light';letter-spacing:0px;word-spacing:0px;display:inline;opacity:0.1;fill:#f34f17;fill-opacity:1;stroke:none;stroke-width:0.64935064px;stroke-linecap:butt;stroke-linejoin:miter;stroke-opacity:1;enable-background:new" />
  <rect
     rx="0.77142125"
     ry="0.77777553"
     y="8.8887091"
     x="4.0000653"
     height="1.5555511"
     width="8"
     id="rect4270-9-8"
     style="color:#000000;display:inline;overflow:visible;visibility:visible;opacity:1;fill:#f8f8f8;fill-opacity:1;fill-rule:nonzero;stroke:none;stroke-width:1.99999988;stroke-linecap:butt;stroke-linejoin:miter;stroke-miterlimit:4;stroke-dasharray:2.00000001, 2.00000001;stroke-dashoffset:0;stroke-opacity:1;marker:none;enable-background:accumulate" />
  <path
     style="color:#000000;display:inline;overflow:visible;visibility:visible;fill:#ffffff;fill-opacity:1;fill-rule:nonzero;stroke:none;stroke-width:1;marker:none;enable-background:accumulate;opacity:0.3"
     d="M 3.8242188 1.5 C 0.80986879 1.5 0.5 1.8118556 0.5 4.8535156 L 0.5 5.3535156 C 0.5 2.3118556 0.80986879 2 3.8242188 2 L 8 2 L 12.175781 2 C 15.190141 2 15.5 2.3118456 15.5 5.3535156 L 15.5 4.8535156 C 15.5 1.8118456 15.190141 1.5 12.175781 1.5 L 8 1.5 L 3.8242188 1.5 z "
     id="path853" />
  <path
     style="display:inline;fill:none;stroke:#fee8bc;stroke-width:1;stroke-linecap:round;stroke-linejoin:miter;stroke-miterlimit:4;stroke-dasharray:none;stroke-opacity:1;enable-background:new"
     d="m 5.0000044,2.9997203 c 0,0 0,-2.5 3,-2.5 3.0000006,0 3.0000006,2.5 3.0000006,2.5"
     id="path24398-3-6-7"
     inkscape:connector-curvature="0"
     sodipodi:nodetypes="csc" />
  <path
     id="path862"
     d="M 12.175781,14.5 C 15.190131,14.5 15.5,14.188144 15.5,11.146484 v -0.5 C 15.5,13.688144 15.190131,14 12.175781,14 H 7.9999999 3.8242189 c -3.01436,0 -3.324219,-0.311846 -3.324219,-3.353516 v 0.5 c 0,3.04167 0.309859,3.353516 3.324219,3.353516 h 4.175781 z"
     style="color:#000000;display:inline;overflow:visible;visibility:visible;opacity:0.2;fill:#000000;fill-opacity:1;fill-rule:nonzero;stroke:none;stroke-width:1;marker:none;enable-background:accumulate"
     inkscape:connector-curvature="0" />
</svg>
